rospo-icon-theme-classic-common/16x16/apps/com.github.bartzaalberg.lottery.svg

<svg height="16" width="16" xmlns="http://www.w3.org/2000/svg"><circle cx="8" cy="8" fill="#c2352a" r="8"/><path d="m8 3a1 1 0 0 0 -1 1 1 1 0 0 0  .40625.8027344c-.4463903.8005818-.893407 1.8837345-1.3398438 2.6015625-.2391459.364286-.598312.5957031-.9570312.5957031-.3188612 0-.6366491-.1907366-.8359375-.4335938-.1515262-.1758599-.3464739-.5579738-.5390625-.8886718a1 1 0 0 0  .265625-.6777344 1 1 0 0 0 -1-1 1 1 0 0 0 -1 1 1 1 0 0 0  .9960938 1c .1881717.7909666.3630381 1.6035023.5605468 2.4726562.03986.1619044.1589286.2851563.3183594.2851563 1.3551612.1619044 2.7495133.2421875 4.1445312.2421875 1.3950177 0 2.7893718-.0802831 4.1445308-.2421875.119574 0 .239441-.1232518.279297-.2851563.197509-.8691539.372376-1.6816896.560547-2.4726562a1 1 0 0 0  .996094-1 1 1 0 0 0 -1-1 1 1 0 0 0 -1 1 1 1 0 0 0  .277344.6914062c-.214673.3509073-.429161.7685912-.589844.9550782-.239146.2428572-.51903.3535156-.837891.3535156-.398576 0-.717886-.2314171-.9570309-.5957031-.4423143-.7111994-.8839031-1.7862272-1.3261719-2.5800781a1 1 0 0 0  .4335938-.8242188 1 1 0 0 0 -1-1z" fill="#ffe15b"/><path d="m12.214062 11.006173c-.03938-.0085-.08437-.0082-.134374.0016-1.333805.194443-2.6972728.391291-4.060938.39219-1.3763336.00092-2.7522424-.19594-4.0984376-.392188-.1600004-.039108-.3203124.117122-.3203124.273398v.820312c0 .195344.1203124.390619.3203124.429688 2.6799996.625103 5.4793752.625103 8.1593756 0 .16-.03907.320312-.234344.320312-.429688v-.820312c0-.146509-.06781-.249361-.185938-.275z" fill="#ffe15b"/></svg>

<svg xmlns="http://www.w3.org/2000/svg" width="16" height="16" version="1">
 <circle style="fill:#c2352a" cx="8" cy="8" r="8"/>
 <path style="fill:#ffe15b" d="M 8 3 A 1 1 0 0 0 7 4 A 1 1 0 0 0 7.40625 4.8027344 C 6.9598597 5.6033162 6.512843 6.6864689 6.0664062 7.4042969 C 5.8272603 7.7685829 5.4680942 8 5.109375 8 C 4.7905138 8 4.4727259 7.8092634 4.2734375 7.5664062 C 4.1219113 7.3905463 3.9269636 7.0084324 3.734375 6.6777344 A 1 1 0 0 0 4 6 A 1 1 0 0 0 3 5 A 1 1 0 0 0 2 6 A 1 1 0 0 0 2.9960938 7 C 3.1842655 7.7909666 3.3591319 8.6035023 3.5566406 9.4726562 C 3.5965006 9.6345606 3.7155692 9.7578125 3.875 9.7578125 C 5.2301612 9.9197169 6.6245133 10 8.0195312 10 C 9.4145489 10 10.808903 9.9197169 12.164062 9.7578125 C 12.283636 9.7578125 12.403503 9.6345607 12.443359 9.4726562 C 12.640868 8.6035023 12.815735 7.7909666 13.003906 7 A 1 1 0 0 0 14 6 A 1 1 0 0 0 13 5 A 1 1 0 0 0 12 6 A 1 1 0 0 0 12.277344 6.6914062 C 12.062671 7.0423135 11.848183 7.4599974 11.6875 7.6464844 C 11.448354 7.8893416 11.16847 8 10.849609 8 C 10.451033 8 10.131723 7.7685829 9.8925781 7.4042969 C 9.4502638 6.6930975 9.008675 5.6180697 8.5664062 4.8242188 A 1 1 0 0 0 9 4 A 1 1 0 0 0 8 3 z"/>
 <path d="m 12.214062,11.006173 c -0.03938,-0.0085 -0.08437,-0.0082 -0.134374,0.0016 -1.333805,0.194443 -2.6972728,0.391291 -4.060938,0.39219 -1.3763336,9.2e-4 -2.7522424,-0.19594 -4.0984376,-0.392188 C 3.760312,10.968667 3.6,11.124897 3.6,11.281173 l 0,0.820312 c 0,0.195344 0.1203124,0.390619 0.3203124,0.429688 2.6799996,0.625103 5.4793752,0.625103 8.1593756,0 0.16,-0.03907 0.320312,-0.234344 0.320312,-0.429688 l 0,-0.820312 c 0,-0.146509 -0.06781,-0.249361 -0.185938,-0.275 z" style="fill:#ffe15b"/>
</svg>
